public/icons/categories.svg

<svg viewBox="0 -52 512.00001 512" xmlns="http://www.w3.org/2000/svg">
    <path
        d="m0 113.292969h113.292969v-113.292969h-113.292969zm30.003906-83.289063h53.289063v53.289063h-53.289063zm0 0" />
    <path
        d="m149.296875 0v113.292969h362.703125v-113.292969zm332.699219 83.292969h-302.695313v-53.289063h302.695313zm0 0" />
    <path
        d="m0 260.300781h113.292969v-113.292969h-113.292969zm30.003906-83.292969h53.289063v53.289063h-53.289063zm0 0" />
    <path
        d="m149.296875 260.300781h362.703125v-113.292969h-362.703125zm30.003906-83.292969h302.695313v53.289063h-302.695313zm0 0" />
    <path
        d="m0 407.308594h113.292969v-113.296875h-113.292969zm30.003906-83.292969h53.289063v53.289063h-53.289063zm0 0" />
    <path
        d="m149.296875 407.308594h362.703125v-113.296875h-362.703125zm30.003906-83.292969h302.695313v53.289063h-302.695313zm0 0" />
    </svg>

<svg viewBox="0 -52 512 512" xmlns="http://www.w3.org/2000/svg">
    <path
        d="M0 113.293h113.293V0H0zm30.004-83.29h53.289v53.29h-53.29zm0 0M149.297 0v113.293H512V0zm332.7 83.293H179.3v-53.29h302.695zm0 0M0 260.3h113.293V147.009H0zm30.004-83.292h53.289v53.289h-53.29zm0 0M149.297 260.3H512V147.009H149.297zm30.004-83.292h302.695v53.289H179.301zm0 0M0 407.309h113.293V294.012H0zm30.004-83.293h53.289v53.289h-53.29zm0 0M149.297 407.309H512V294.012H149.297zm30.004-83.293h302.695v53.289H179.301zm0 0" />
</svg>
